!!!OTL-incipit: ES BLIES EIN JAEGER WOHL IN SEIN HORN
!!!ARE: Europa, Mitteleuropa, Deutschland
!!!SCT: Z0233
!!!TXL: @@DE
!!!YEM: Copyright 1995, estate of Helmut Schaffrath.
**kern	**text
*ICvox	*
*M6/8	*
*k[f#]	*
*G:	*
!LO:TX:a:t=Jägerlied.	!
{8d	Es
=1	=1
4g	blies
8g	ein
8g	Jä-
8a	-ger
8b/	wohl
=2	=2
16bqq	.
4a	in
8a	ſein
4a	Horn,
8b/	wohl
=3	=3
16bqq	.
4a	in
8a	ſein
4a}	Horn,
{8d	und
=4	=4
(4g	was
8b/)	er
(8dd	blies,
8cc)	.
8b/	das
=5	=5
4a	war
8d	ver-
4d	-lor'n,
8r}	.
=6	=6
{8e	hop-
8e	-ſa-
8e	-ſa-
4e	-ſa.
8r	.
=7	=7
8f#	tra-
8f#	-ra-
8f#	-ra-
4f#}	-ra,
{8d	und
=8	=8
(8d	was
8g)	.
8g	er
(8g	blies,
8b/)	.
8b/	das
=9	=9
(8d	war
8e)	.
8f#	ver-
4g}	-lor'n.
==	==
!!!AGN: Jaeger - Lied
!!!ONB: ESAC (Essen Associative Code) Database: ZUCCAL
!!!AMT: compound duple
!!!AIN: vox
!!!EED: Helmut Schaffrath
!!!EEV: 1.0
!!@@COMMENT:"In original two voices"
!!@@END:
!!!GTL: III. Soldaten-, Jaeger-, Schiffer-, Fuhrmanns- und Handwerks-Lieder.
!!!URL-scan: https://www.digitale-sammlungen.de/de/view/bsb11160571?page=435
!!!ENC: Anna Maria Matuszewska
!!!EEV: 2025/01/29
*-	*-
